!!!!SEGMENT: pl-wnifc--13846--054_anonim--piesni-polskie-i-ruskie-ludu-galicyjskiego-54-nebudu-sia-ze-nyty.krn
!!!kernsource:
!!!cenid: 18xx:3276
!!!COM: Anonim
!!!COM-rismid: pe30004985
!!!CDT:
!!!CNT:
!!!GTL: Pieśni polskie i ruskie ludu galicyjskiego
!!!OTL: 54. Nebudu sia że nyty
!!!PDT: 1833
!!!AGN:
!!!SMS-siglum: PL-Wnifc
!!!SMS-shelfmark: 13846
!!!SMS-shelfwork: 054 G
!!!NIFC-rismid: 1001037061
!!!URL-scan: http://repozytorium.nifc.pl/skany/pl-wnifc-nut--13846
!!!ONB-nifc:
!!!key: C
**kern	**kern	**kern	**text
*part2	*part2	*part1	*part1
*group2	*group2	*group1	*group1
*staff3	*staff2	*staff1	*staff1
*I"[Fortepian.]	*I"[Fortepian.]	*I"[Głos.]	*
*Ipiano	*Ipiano	*Ivox	*
*ICklav	*ICklav	*ICvox	*
*IGacmp	*IGacmp	*IGsolo	*
*clefF4	*clefG2	*clefG2	*
*k[]	*k[]	*k[]	*
*C:	*C:	*C:	*
*M2/4	*M2/4	*M2/4	*
=1-	=1-	=1-	=1-
!	!	!LO:TX:a:t=D.b.T.1.	!
!	!	!LO:TX:a:t=Allegro Moderato quasi Andantino.	!
16C/LL	8gg\L 8g\	8gg\	Ne
16G\	.	.	.
16e\	8gg\J 8g\	8gg\	bu-
16G\JJ	.	.	.
16d\LL	8.ff\L 8.g\	8.ff\	-du
16G\	.	.	.
16B\	.	.	.
16G\JJ	16dd\Jk 16g\	16dd\	sia
=2	=2	=2	=2
16E\LL	8cc/L 8g/	8cc\	że-
16G\	.	.	.
16E\	8cc/J 8g/	8cc\	-ny-
16G\JJ	.	.	.
16F\LL	8.b\L 8.g\	(8.b\L	-ty
16G\	.	.	.
16D\	.	.	.
16G\JJ	16g\Jk	16g/Jk)	.
=3	=3	=3	=3
16C/LL	8cc\L 8g\	8cc\	bo
16GG/	.	.	.
16C/	8ee\ 8g\	8ee\	me-
16GG/JJ	.	.	.
16D\LL	8ff\ 8g\	8ff\	-ni
16GG/	.	.	.
16F\	8dd\J 8g\	8dd\	nie
16GG/JJ	.	.	.
!!linebreak:original
=4	=4	=4	=4
*	*^	*	*
16E\LL	8g\L	4cc/	4cc\	z to
16G\	.	.	.	.
16E\	8g\	.	.	.
16C/JJ	.	.	.	.
16BB/LL	8f\	4g/	4g/	ho,
16D\	.	.	.	.
16G\	8d\J	.	.	.
16F\JJ	.	.	.	.
*	*v	*v	*	*
=5	=5	=5	=5
16E\LL	8gg\L 8g\	8gg\	ne
16G\	.	.	.
16E\	8gg\J 8g\	8gg\	sta-
16G\JJ	.	.	.
16D\LL	8ff\L 8g\	8ff\	-je
16G\	.	.	.
16C/	(>16ee\L [>16g\	(16ee\LL	my
16G\JJ	16dd/JJ 16g/])	16dd\JJ)	.
=6	=6	=6	=6
16E\LL	8cc\L 8g\	8cc\	de-
16G\	.	.	.
16E\	8cc\J 8g\	8cc\	-sit
16G\JJ	.	.	.
16F\LL	8.b\L 8.g\	8.b\	hro-
16G\	.	.	.
16D\	.	.	.
16G\JJ	16g\Jk	16g/	-szy,
!!linebreak:original
=7	=7	=7	=7
16E\LL	8cc\L 8g\	8cc\	do
16G\	.	.	.
16C/	8ee\ 8g\	8ee\	piw
16G\JJ	.	.	.
16BB/LL	8ff\ 8g\	8ff\	zo-
16G\	.	.	.
16D\	8dd\J 8g\	8dd\	-ło-
16G\JJ	.	.	.
=8	=8	=8	=8
*	*^	*	*
16E\LL	8g\L	4cc/	4cc\	-to-
16G\	.	.	.	.
16E\	8g\	.	.	.
16C/JJ	.	.	.	.
16BB/LL	8f\	4g/	4g/	-ho,
16D\	.	.	.	.
16G\	8d\J	.	.	.
16B\JJ	.	.	.	.
*	*v	*v	*	*
=9!|:	=9!|:	=9!|:	=9!|:
8c\'^<L	4ee\ 4g\^<	4ee\	hop
8G\'	.	.	.
8d\'^<	4ff\ 4g\^<	4ff\	czuk
8G\'J	.	.	.
=10	=10	=10	=10
8e\'^<L	8gg\L 8g\	8gg\	czu-
!	!	!LO:SIC:v:l:s=-mu-:?	!
8G\'J	8gg\J 8g\	8gg\	-ma-
8d\'^<L	4ff\ 4g\^<	4ff\	-dra,
8G\'J	.	.	.
!!linebreak:original
=11	=11	=11	=11
8c\'L	8ee\L 8g\	8ee\	czu-
8G\'J	8ee\J 8g\	8ee\	-mu-
8B\'L	16gg\LL 16g\	(16gg\LL	-dry-
.	(16ff\	16ff\JJ)	.
8G\'J	16ee\	(16ee\LL	cha
.	16dd\JJ)	16dd\JJ)	.
=12	=12	=12	=12
!LO:TX:t=P:problem:miced beam	!	!	!
8c\L	8cc\	8cc\	mo-
8G\	8cc\L 8g\ 8e\	8cc\	-ło-
8C/J	8cc\J 8g\ 8e\	8cc\	-da.
8r	8r	8r	.
=:|!	=:|!	=:|!	=:|!
*-	*-	*-	*-
!!!system-decoration: g1{g2}
!!!RDF**kern: > = above
!!!RDF**kern: < = below
!!!RDF**kern: | = vertical stroke
!!!AIN: 1 piano 1 vox
!!!ENC: Katarzyna Serwa
!!!END: 2021-11-10
